calendar-clock-outline.svg

<svg fill="currentColor" viewBox="0 0 24 24"><path d="M6 1v2H5c-1.11 0-2 .89-2 2v14a2 2 0 0 0 2 2h6.1c1.26 1.24 2.99 2 4.9 2 3.87 0 7-3.13 7-7 0-1.91-.76-3.64-2-4.9V5a2 2 0 0 0-2-2h-1V1h-2v2H8V1M5 5h14v2H5m0 2h14v.67c-.91-.43-1.93-.67-3-.67-3.87 0-7 3.13-7 7 0 1.07.24 2.09.67 3H5m11-7.85c2.68 0 4.85 2.17 4.85 4.85s-2.17 4.85-4.85 4.85-4.85-2.17-4.85-4.85 2.17-4.85 4.85-4.85M15 13v3.69l3.19 1.84.75-1.3-2.44-1.41V13Z"/></svg>

<svg  viewBox="0 0 24 24" fill="currentColor"><path  d="M6 1V3H5C3.89 3 3 3.89 3 5V19C3 20.1 3.89 21 5 21H11.1C12.36 22.24 14.09 23 16 23C19.87 23 23 19.87 23 16C23 14.09 22.24 12.36 21 11.1V5C21 3.9 20.11 3 19 3H18V1H16V3H8V1M5 5H19V7H5M5 9H19V9.67C18.09 9.24 17.07 9 16 9C12.13 9 9 12.13 9 16C9 17.07 9.24 18.09 9.67 19H5M16 11.15C18.68 11.15 20.85 13.32 20.85 16C20.85 18.68 18.68 20.85 16 20.85C13.32 20.85 11.15 18.68 11.15 16C11.15 13.32 13.32 11.15 16 11.15M15 13V16.69L18.19 18.53L18.94 17.23L16.5 15.82V13Z"/></svg>
